X: 31b
T:31b. Miss Elizabeth Leah Bolick Harmony
C:c 1999 Harry Bolick  
O:United States
A:Brooklyn, New York
M:3/4
L:1/8
Q:250
K:F
z3 de |: "Dm" f2 fA  de |  f3 f ef |  f2  e2 d2 | "Gm"  B4 AB |
"Bb" dc B3 A | "Dm"  FE D3  D | "F" F2 FF GG  | "Dm" A2 z f ef |
"F"  fe d2 dc | "Bb"  dc B3 B  |  "C" cB  G3 E | "Dm" FE  D3 D |
"F" A4 Bc | "Bb"  B2 B2 A2 | "C"  e2 f2 g2 | "F"  a4 de :|
|: "F" f2  A2 F2 | "Dm"  A4 A2 | "C" E3 F GB | "C"  e2 d2c2  |
 "F" f2 c2 F2 | "Dm"  A4 A2 | "G" G2 A=B cd | "C" e3 e de |
 "F" f2 c2 F2 | "Dm"  A4 A2 | "C" E3 F Bd | "C" e2 d2 e2  |
 "F" f3 e dc | "Bb"  B4 AB | "C"  e2f2 g2 | "F"  a4 de :|
